X: 37043
T: Silver Heels Clog, The
R: hornpipe
M: 4/4
K: Gmajor
|:(3def|g2 d>c B>dc>A|G>BD>G B,>DG>B|A,>CE>A c>Af>e|^d>ec>A F2 (3=def|
g>Gd>c B>D (3cBA|G>BD>G B,>DG>B|A,>CE>A c>Ae>d|^c>d (3=cBA G2:|
|:D>B|G,2 B>G e>B (3gfe|^d>ec>A F>AF>^D|E>B,G>E B>Ge>d|(3^ca^g (3a=ge d3 =c|
B>dG>B D>G (3Bcd|c>eG>c E>G (3cde|d>BG>D (3B,CD G>B|(3AGF c>F G2:|

